X:1
T:Title
%%score { ( 1 3 4 ) | ( 2 5 ) }
L:1/8
M:4/4
K:D
V:1 treble nm="Grand Piano"
V:3 treble 
V:4 treble 
V:2 treble 
V:5 treble 
V:1
 z4 z2[Q:1/4=108] (3FG^G | z2 z A z2 z c | [EG]2 [A,CEG]2 z4 | [GB]2 [GB]2 [Ac]2 [Ac]2 | %4
[M:3/4] F6 |[M:1/4] A z |[M:4/4] [FB]4 z4 | [FA]2 [B,EG]2 D,2 GG | [=Fc]4 z4 | [F^A]4 [CG=A]4 | %10
[Q:1/4=136] z2 [FA]2 z2 [FA]2 | z2 [DF]2 z2 [DF]2 | z2 A4[K:bass][K:treble] z2 | [G,G]8[K:bass] | %14
 z2 [GA]2 z2 [GA]2 | z2 [GA]2 z2 [GA]2 | z2 A4[K:bass] z2 | [F,F]8[K:treble] | [DAd]4 [DAd]4 | %19
 [DGB]2 B>B B2 B2 | [EBe]4 [EBe]4 | [EAc]2 A>A A2 A2 | [DAd]6 [DAd]2 | [EG^Ad]4 [G=Ace]4 | %24
 [DFAd]8- |[M:3/4] [DFAd]6 |] %26
V:2
 z4 z2 (3DE=F | D,2 z F A,,2 z F | E,2 G,2 A,,2[K:treble] (3CEG | E,2 [G,A,C]2 A,,2 [G,A,C]2 | %4
[M:3/4] [D,D]2 [F,A,]2 A,,2 |[M:1/4][K:treble] z ^A |[M:4/4][K:bass] z2 A,2[K:treble][K:bass] z4 | %7
 E,2 G,2 z2 EE | C,2 z[K:treble] d[K:bass] C,,2 [B,,=F,B,]2 | [C,F,^A,]4 [A,,E,=A,]4 | %10
 [D,,D,]2 z2 [A,,,A,,]2 z2 | [D,,D,]2 z2 [A,,,A,,]2 z2 | z2 G4 z2 | [E,,E,]2 C2 A,,,2 C2 | %14
 [E,,E,]2 z2 [A,,,A,,]2 z2 | [E,,E,]2 z2 [A,,,A,,]2 z2 | z2 F4 z2 | [D,,D,]2 A,2 A,,,2 A,2 | %18
 [F,,F,]4 [F,,F,]4 | [G,,D,G,]2 z2 z4 | [^G,,^G,]4 [G,,G,]4 | [A,,E,A,]2 z2 z4 | %22
 [F,,F,]6 [F,,F,]2 | [G,,G,]4 [A,,,A,,]4 | [D,,A,,D,]8- |[M:3/4] [D,,A,,D,]6 |] %26
V:3
 x8 | [FA]4 [Fd]4 | x8 | x8 |[M:3/4] z2 D4 |[M:1/4] x2 |[M:4/4] z2 B,2 [FB]2 [A,B,FA]2 | x8 | %8
 z2 B,2 [=Fc]2 [FB]2 | x8 | [Dd]4 [Cc]4 | [B,B]4 [A,A]4 | [Cc]6[K:bass][K:treble] z2 | %13
 z2 E2[K:bass] A,,2 E2 | [Dd]4 [Cc]4 | [B,B]4 [Dd]4 | [Cc]6[K:bass] z2 | z2 D2 A,,2[K:treble] A2 | %18
 x8 | x8 | x8 | x8 | x8 | x8 | x8 |[M:3/4] x6 |] %26
V:4
 x8 | z2 [A,D]2 z2 [A,D]2 | x8 | x8 |[M:3/4] x6 |[M:1/4] x2 |[M:4/4] x8 | x8 | x8 | x8 | x8 | x8 | %12
 z4[K:bass] A,,2[K:treble] G2 | x4[K:bass] x4 | x8 | x8 | z4[K:bass] A,,2 F2 | x6[K:treble] x2 | %18
 x8 | x8 | x8 | x8 | x8 | x8 | x8 |[M:3/4] x6 |] %26
V:5
 x8 | z2 F,2 z2 F,2 | x6[K:treble] x2 | x8 |[M:3/4] x6 |[M:1/4][K:treble] F2 | %6
[M:4/4][K:bass] ^D,2 z[K:treble] =c[K:bass] B,,2 D,2 | z4 z2 [G,B,]2 | %8
 z2 =F,2[K:treble][K:bass] z4 | x8 | x8 | x8 | [E,,E,]2 z2 A,,,2 G,2 | x8 | x8 | x8 | %16
 [D,,D,]2 z2 A,,,2 F,2 | x8 | x8 | x8 | x8 | x8 | x8 | x8 | x8 |[M:3/4] x6 |] %26

